packages/astro-components-stencil/src/icons/print-disabled.svg

<svg width="24" height="24" viewBox="0 0 24 24" fill="none" xmlns="http://www.w3.org/2000/svg">
<path fill-rule="evenodd" clip-rule="evenodd" d="M2.11998 2.31997C1.72998 1.92997 1.09998 1.92997 0.70998 2.31997C0.31998 2.70997 0.31998 3.33997 0.70998 3.72997L4.97998 7.99997C3.32998 8.00997 1.99998 9.34997 1.99998 11V15C1.99998 16.1 2.89998 17 3.99998 17H5.99998V19C5.99998 20.1 6.89998 21 7.99998 21H16C16.55 21 17.04 20.78 17.4 20.42L20.23 23.25C20.62 23.64 21.25 23.64 21.64 23.25C22.03 22.86 22.03 22.23 21.64 21.84L2.11998 2.31997ZM15 19H8.99998C8.44998 19 7.99998 18.55 7.99998 18V14H10.98L15.7 18.72C15.51 18.89 15.27 19 15 19ZM10.63 7.99997H19C20.66 7.99997 22 9.33997 22 11V15C22 16.1 21.1 17 20 17H19.63L10.63 7.99997ZM19 12C18.45 12 18 11.55 18 11C18 10.45 18.45 9.99997 19 9.99997C19.55 9.99997 20 10.45 20 11C20 11.55 19.55 12 19 12ZM18 5.99997C18 6.54997 17.55 6.99997 17 6.99997H9.62998L6.14998 3.50997C6.31998 3.20997 6.62998 2.99997 6.99998 2.99997H17C17.55 2.99997 18 3.44997 18 3.99997V5.99997Z" fill="black"/>
</svg>

<svg xmlns="http://www.w3.org/2000/svg" viewBox="0 0 24 24"><g xmlns="http://www.w3.org/2000/svg" id="print-disabled" fill-rule="nonzero">
            <path d="M2.12 2.32A.996.996 0 10.71 3.73L4.98 8A2.998 2.998 0 002 11v4c0 1.1.9 2 2 2h2v2c0 1.1.9 2 2 2h8c.55 0 1.04-.22 1.4-.58l2.83 2.83a.996.996 0 101.41-1.41L2.12 2.32zM15 19H9c-.55 0-1-.45-1-1v-4h2.98l4.72 4.72c-.19.17-.43.28-.7.28zm4-11h-8.37l9 9H20c1.1 0 2-.9 2-2v-4c0-1.66-1.34-3-3-3zm0 4c-.55 0-1-.45-1-1s.45-1 1-1 1 .45 1 1-.45 1-1 1zm-2-5c.55 0 1-.45 1-1V4c0-.55-.45-1-1-1H7c-.37 0-.68.21-.85.51L9.63 7H17z"/>
        </g></svg>
